chrome/icons/error-badge.svg

<svg height="16" viewBox="172 171 683 683" width="16" xmlns="http://www.w3.org/2000/svg" xmlns:xlink="http://www.w3.org/1999/xlink">
  <path d="M512.5,587.5L262.5,838C252.167,848.333 239.5,853.5 224.5,853.5C209.5,853.5 196.917,848.417 186.75,838.25C176.583,828.083 171.5,815.5 171.5,800.5C171.5,785.5 176.667,772.833 187,762.5L437,512L187,262C176.667,251.667 171.5,239.167 171.5,224.5C171.5,217.167 172.833,210.167 175.5,203.5C178.167,196.833 181.917,191.167 186.75,186.5C191.583,181.833 197.167,178.083 203.5,175.25C209.833,172.417 216.833,171 224.5,171C239.167,171 251.667,176.167 262,186.5L512.5,437L762.5,186.5C773.167,175.833 785.833,170.5 800.5,170.5C807.833,170.5 814.75,171.917 821.25,174.75C827.75,177.583 833.417,181.417 838.25,186.25C843.083,191.083 846.833,196.75 849.5,203.25C852.167,209.75 853.5,216.667 853.5,224C853.5,238.667 848.333,251.167 838,261.5L587.5,512L838,762.5C848.667,773.167 854,785.833 854,800.5C854,807.833 852.583,814.667 849.75,821C846.917,827.333 843.083,832.917 838.25,837.75C833.417,842.583 827.75,846.417 821.25,849.25C814.75,852.083 807.833,853.5 800.5,853.5C785.5,853.5 772.833,848.333 762.5,838Z" fill="context-fill" fill-opacity="context-fill-opacity">
  </path>
</svg>

<svg xmlns="http://www.w3.org/2000/svg" width="16" height="16" viewBox="172 171 683 683"><path fill="context-fill" fill-opacity="context-fill-opacity" d="M512.5 587.5 262.5 838q-15.5 15.5-38 15.5t-37.75-15.25-15.25-37.75 15.5-38L437 512 187 262q-15.5-15.5-15.5-37.5 0-11 4-21t11.25-17 16.75-11.25 21-4.25q22 0 37.5 15.5L512.5 437l250-250.5q16-16 38-16 11 0 20.75 4.25t17 11.5 11.25 17 4 20.75q0 22-15.5 37.5L587.5 512 838 762.5q16 16 16 38 0 11-4.25 20.5t-11.5 16.75-17 11.5-20.75 4.25q-22.5 0-38-15.5Z"/></svg>
